src/static/logos/otto.svg

<svg width="256" height="256" xmlns="http://www.w3.org/2000/svg" preserveAspectRatio="xMidYMid"><path d="M253.532 128c0 69.329-56.203 125.532-125.532 125.532S2.468 197.329 2.468 128 58.671 2.468 128 2.468 253.532 58.671 253.532 128" fill="#FFF"/><path d="M211.963 203.225h-5.093a3.762 3.762 0 01-3.763-3.762v-3.11a2.657 2.657 0 00-2.649-2.649h-55.167a3.304 3.304 0 01-3.304-3.304v-16.521h46.923a3.931 3.931 0 003.932-3.932v-50.195s10.853.255 10.853-8.913c0-9.168-10.853-8.675-10.853-8.675V79.236a3.932 3.932 0 00-3.932-3.933H66.228a3.932 3.932 0 00-3.932 3.933v22.287s-9.991 2.382-9.991 9.316c0 6.935 9.991 8.471 9.991 8.471v50.637a3.931 3.931 0 003.932 3.932h47.667v16.573a2.781 2.781 0 01-2.782 2.782H56.707a4.637 4.637 0 00-4.637 4.637l-.353 4.884-6.817.588c-1.483 0-2.443 1.843-2.563 3.321l-1.022 12.605s28.738 34.498 82.689 34.498c53.95 0 89.329-32.911 89.329-32.911v-16.261a1.37 1.37 0 00-1.37-1.37" fill="#FF6D38"/><path d="M128 0C57.308 0 0 57.308 0 128c0 70.692 57.308 128 128 128 70.693 0 128-57.308 128-128C256 57.308 198.693 0 128 0zM49.836 223.367a124.3 124.3 0 01-5.289-4.609v-11.812c0-.755.615-1.37 1.371-1.37h3.918v17.791zM128 251.298c-16.647 0-32.794-3.259-47.992-9.687a122.71 122.71 0 01-25.47-14.567v-21.468h54.666c3.883 0 7.042-3.16 7.042-7.042v-2.244h2.358c3.7 0 6.711-3.01 6.711-6.711v-12.8h4.566v21.931a6.873 6.873 0 006.865 6.866h63.893v22.067a122.724 122.724 0 01-24.647 13.968c-15.198 6.428-31.345 9.687-47.992 9.687zm-73.462-50.424v-2.165a2.422 2.422 0 012.419-2.419h54.588v2.244c0 1.29-1.05 2.34-2.341 2.34H54.538zm11.361-96.813c-.529-1.394-1.198-2.433-1.958-3.155v-21.5a1.95 1.95 0 011.948-1.948h123.634a1.95 1.95 0 011.948 1.948v22.197c-.503.648-.954 1.461-1.332 2.458-.976 2.571-1.264 5.907-.919 8.717.317 2.58.984 4.893 2.251 6.819v50.533a1.95 1.95 0 01-1.948 1.947H65.889a1.95 1.95 0 01-1.948-1.947v-49.673c1.683-2.08 2.512-4.702 2.877-7.679.345-2.81.057-6.146-.919-8.717zm58.986-31.304v-4.186c0-1.143.93-2.073 2.074-2.073h2.177v6.259h-4.251zm86.92 145.673a124.764 124.764 0 01-6.464 5.6v-18.454h4.409c1.133 0 2.055.922 2.055 2.055v10.799zm-11.166-17.556h-63.893a2.166 2.166 0 01-2.164-2.164v-21.931h4.232v13.231a6.522 6.522 0 006.515 6.515h53.769c.85 0 1.541.691 1.541 1.541v2.808zm-80.026-24.095v12.8c0 1.108-.901 2.01-2.009 2.01h-2.358v-14.81h4.367zm95.894 37.053v-6.201a6.764 6.764 0 00-6.757-6.757h-4.409v-2.808a6.25 6.25 0 00-6.243-6.242h-53.769c-1 0-1.814-.814-1.814-1.814v-13.231h46.008a6.657 6.657 0 006.65-6.649v-47.983c.031-.011.063-.02.094-.032 4.999-1.794 7.311-3.988 8.966-7.266a9.857 9.857 0 00.961-2.945l1.419-1.065c1.706-1.279 2.312-3.644 2.312-5.28V91.233a3.8 3.8 0 10-6.23-2.922 3.79 3.79 0 001.528 3.041v14.207c0 .188-.022.375-.057.552-1.886-3.654-5.835-6.424-8.993-6.604V79.406a6.657 6.657 0 00-6.65-6.649h-55.686v-6.259h5.888a5.471 5.471 0 005.465-5.465V58.35a6.346 6.346 0 00-6.339-6.339h-5.014V39.606a3.907 3.907 0 001.568-3.13 3.918 3.918 0 10-7.836 0c0 1.281.617 2.414 1.567 3.129v12.406h-5.49a2.113 2.113 0 01-2.111-2.111v-1.45a3.907 3.907 0 001.607-3.158 3.918 3.918 0 10-7.836 0c0 1.263.6 2.383 1.528 3.099V49.9c0 3.756 3.056 6.813 6.812 6.813h5.49v5.083h-2.177a6.782 6.782 0 00-6.775 6.775v4.186H65.889a6.657 6.657 0 00-6.649 6.649v20.168c-3.038.478-6.605 3.121-8.368 6.537a2.943 2.943 0 01-.057-.552V91.352a3.79 3.79 0 001.528-3.041 3.8 3.8 0 10-7.601 0c0 1.175.534 2.225 1.372 2.922v14.326c0 1.636.605 4.001 2.311 5.28l1.419 1.065c.155.999.476 1.984.961 2.945 1.595 3.158 3.806 5.308 8.435 7.066v48.215a6.657 6.657 0 006.649 6.649h45.656v14.81H56.957c-3.926 0-7.121 3.194-7.121 7.12v2.165h-3.918a6.079 6.079 0 00-6.072 6.072v7.247c-10.861-11.102-19.427-23.944-25.457-38.201C7.961 160.794 4.702 144.647 4.702 128s3.259-32.794 9.687-47.992c6.21-14.682 15.101-27.868 26.426-39.193C52.14 29.49 65.326 20.599 80.008 14.389 95.206 7.961 111.353 4.702 128 4.702s32.794 3.259 47.992 9.687c14.682 6.21 27.868 15.101 39.193 26.426 11.325 11.325 20.216 24.511 26.426 39.193 6.428 15.198 9.687 31.345 9.687 47.992s-3.259 32.794-9.687 47.992c-5.965 14.103-14.41 26.821-25.104 37.84zm-22.704-103.744c.122-3.053 1.193-5.232 1.717-5.803.129-.027.255-.065.379-.113l.043-.002a.99.99 0 01.231.035c1.349.346 5.246 3.264 5.21 6.36-.039 3.409-1.692 4.377-4.733 6.105-.15.085-.314.124-.477.128a.995.995 0 01-.881-.46c-1.387-2.231-1.549-4.746-1.489-6.25zm-59.966-48.292v-5.083h5.014c.903 0 1.637.734 1.637 1.637v2.683a.764.764 0 01-.763.763h-5.888zm-73.091 54.542c-.284.456-.89.597-1.358.332l-.148-.085c-2.944-1.674-4.547-2.669-4.585-6.02-.031-2.703 2.933-5.267 4.585-6.106.364-.185.666-.289.856-.289l.043.002c.124.048.251.086.379.113.524.571 1.596 2.75 1.717 5.803.06 1.504-.102 4.019-1.489 6.25z" fill="#273335"/><path d="M172.114 126.825H83.651c-5.822 0-10.542-4.72-10.542-10.542v-11.71c0-5.822 4.72-10.542 10.542-10.542h88.463c5.822 0 10.542 4.72 10.542 10.542v11.71c0 5.822-4.72 10.542-10.542 10.542m-24.015 28.679H110.77a5.578 5.578 0 01-5.573-5.572v-3.713a2.35 2.35 0 114.702 0v3.713c0 .48.391.871.871.871h37.329a2.35 2.35 0 110 4.701" fill="#273335"/><path d="M177.008 104.834a2.897 2.897 0 11-5.794 0 2.897 2.897 0 015.794 0zm-23.178 0a2.897 2.897 0 11-5.794 0 2.897 2.897 0 015.794 0zm-11.59 0a2.897 2.897 0 11-5.794 0 2.897 2.897 0 015.794 0zm-23.002 0a2.897 2.897 0 11-5.794 0 2.897 2.897 0 015.794 0zm-11.589 0a2.897 2.897 0 11-5.794 0 2.897 2.897 0 015.794 0zm-23.178 0a2.897 2.897 0 11-5.794 0 2.897 2.897 0 015.794 0zm23.178 11.589a2.897 2.897 0 11-5.794 0 2.897 2.897 0 015.794 0zm34.679 0a2.897 2.897 0 11-5.794 0 2.897 2.897 0 015.794 0zm34.592 0a2.897 2.897 0 11-5.794 0 2.897 2.897 0 015.794 0zm-80.86 0a2.897 2.897 0 11-5.794 0 2.897 2.897 0 015.794 0z" fill="#FFF"/><path d="M178.938 217.068c-3.118 0-5.766 2.023-6.718 4.824h-3.918v-4.911H163.6v4.911h-5.993v-4.911h-4.701v4.911h-3.977c-.951-2.801-3.6-4.824-6.718-4.824-3.914 0-7.098 3.184-7.098 7.099a7.106 7.106 0 007.098 7.098c3.061 0 5.668-1.951 6.662-4.672h4.033v4.493h4.701v-4.493h5.993v4.493h4.702v-4.493h3.974c.995 2.721 3.601 4.672 6.662 4.672a7.106 7.106 0 007.098-7.098c0-3.915-3.184-7.099-7.098-7.099zm-36.727 9.495a2.4 2.4 0 01-2.397-2.396 2.4 2.4 0 012.397-2.397 2.4 2.4 0 012.397 2.397 2.4 2.4 0 01-2.397 2.396zm36.727 0a2.4 2.4 0 01-2.397-2.396 2.4 2.4 0 012.397-2.397 2.4 2.4 0 012.397 2.397 2.4 2.4 0 01-2.397 2.396z" fill="#273335"/></svg>

<?xml version="1.0" encoding="UTF-8" standalone="no"?>
<svg width="256px" height="256px" viewBox="0 0 256 256" version="1.1" xmlns="http://www.w3.org/2000/svg" xmlns:xlink="http://www.w3.org/1999/xlink" preserveAspectRatio="xMidYMid">
	<g>
		<path d="M253.532,128 C253.532,197.329 197.329,253.532 128,253.532 C58.671,253.532 2.468,197.329 2.468,128 C2.468,58.671 58.671,2.468 128,2.468 C197.329,2.468 253.532,58.671 253.532,128" fill="#FFFFFF"></path>
		<path d="M211.963,203.225 L206.87,203.225 C204.792,203.225 203.107,201.541 203.107,199.463 L203.107,196.353 C203.107,194.896 201.915,193.704 200.458,193.704 L145.291,193.704 C143.466,193.704 141.987,192.225 141.987,190.4 L141.987,173.879 L188.91,173.879 C191.082,173.879 192.842,172.119 192.842,169.947 L192.842,119.752 C192.842,119.752 203.695,120.007 203.695,110.839 C203.695,101.671 192.842,102.164 192.842,102.164 L192.842,79.236 C192.842,77.064 191.082,75.303 188.91,75.303 L66.228,75.303 C64.056,75.303 62.296,77.064 62.296,79.236 L62.296,101.523 C62.296,101.523 52.305,103.905 52.305,110.839 C52.305,117.774 62.296,119.31 62.296,119.31 L62.296,169.947 C62.296,172.119 64.056,173.879 66.228,173.879 L113.895,173.879 L113.895,190.452 C113.895,191.989 112.65,193.234 111.113,193.234 L56.707,193.234 C54.146,193.234 52.07,195.31 52.07,197.871 L51.717,202.755 L44.9,203.343 C43.417,203.343 42.457,205.186 42.337,206.664 L41.315,219.269 C41.315,219.269 70.053,253.767 124.004,253.767 C177.954,253.767 213.333,220.856 213.333,220.856 L213.333,204.595 C213.333,203.838 212.72,203.225 211.963,203.225" fill="#FF6D38"></path>
		<path d="M128,0 C57.308,0 0,57.308 0,128 C0,198.692 57.308,256 128,256 C198.693,256 256,198.692 256,128 C256,57.308 198.693,0 128,0 L128,0 Z M49.836,223.367 C48.034,221.886 46.272,220.347 44.547,218.758 L44.547,206.946 C44.547,206.191 45.162,205.576 45.918,205.576 L49.836,205.576 L49.836,223.367 L49.836,223.367 Z M128,251.298 C111.353,251.298 95.206,248.039 80.008,241.611 C70.915,237.765 62.397,232.888 54.538,227.044 L54.538,205.576 L109.204,205.576 C113.087,205.576 116.246,202.416 116.246,198.534 L116.246,196.29 L118.604,196.29 C122.304,196.29 125.315,193.28 125.315,189.579 L125.315,176.779 L129.881,176.779 L129.881,198.71 C129.881,202.496 132.96,205.576 136.746,205.576 L200.639,205.576 L200.639,227.643 C193.008,233.22 184.77,237.898 175.992,241.611 C160.794,248.039 144.647,251.298 128,251.298 L128,251.298 Z M54.538,200.874 L54.538,198.709 C54.538,197.375 55.623,196.29 56.957,196.29 L111.545,196.29 L111.545,198.534 C111.545,199.824 110.495,200.874 109.204,200.874 L54.538,200.874 L54.538,200.874 Z M65.899,104.061 C65.37,102.667 64.701,101.628 63.941,100.906 L63.941,79.406 C63.941,78.332 64.815,77.458 65.889,77.458 L189.523,77.458 C190.597,77.458 191.471,78.332 191.471,79.406 L191.471,101.603 C190.968,102.251 190.517,103.064 190.139,104.061 C189.163,106.632 188.875,109.968 189.22,112.778 C189.537,115.358 190.204,117.671 191.471,119.597 L191.471,170.13 C191.471,171.203 190.597,172.077 189.523,172.077 L65.889,172.077 C64.815,172.077 63.941,171.203 63.941,170.13 L63.941,120.457 C65.624,118.377 66.453,115.755 66.818,112.778 C67.163,109.968 66.875,106.632 65.899,104.061 L65.899,104.061 Z M124.885,72.757 L124.885,68.571 C124.885,67.428 125.815,66.498 126.959,66.498 L129.136,66.498 L129.136,72.757 L124.885,72.757 L124.885,72.757 Z M211.805,218.43 C209.708,220.376 207.553,222.243 205.341,224.03 L205.341,205.576 L209.75,205.576 C210.883,205.576 211.805,206.498 211.805,207.631 L211.805,218.43 L211.805,218.43 Z M200.639,200.874 L136.746,200.874 C135.553,200.874 134.582,199.904 134.582,198.71 L134.582,176.779 L138.814,176.779 L138.814,190.01 C138.814,193.602 141.736,196.525 145.329,196.525 L199.098,196.525 C199.948,196.525 200.639,197.216 200.639,198.066 L200.639,200.874 L200.639,200.874 Z M120.613,176.779 L120.613,189.579 C120.613,190.687 119.712,191.589 118.604,191.589 L116.246,191.589 L116.246,176.779 L120.613,176.779 L120.613,176.779 Z M216.507,213.832 L216.507,207.631 C216.507,203.905 213.476,200.874 209.75,200.874 L205.341,200.874 L205.341,198.066 C205.341,194.624 202.54,191.824 199.098,191.824 L145.329,191.824 C144.329,191.824 143.515,191.01 143.515,190.01 L143.515,176.779 L189.523,176.779 C193.19,176.779 196.173,173.796 196.173,170.13 L196.173,122.147 C196.204,122.136 196.236,122.127 196.267,122.115 C201.266,120.321 203.578,118.127 205.233,114.849 C205.718,113.888 206.04,112.903 206.194,111.904 L207.613,110.839 C209.319,109.56 209.925,107.195 209.925,105.559 L209.925,91.233 C210.762,90.536 211.296,89.486 211.296,88.311 C211.296,86.212 209.594,84.511 207.496,84.511 C205.397,84.511 203.695,86.212 203.695,88.311 C203.695,89.557 204.297,90.659 205.223,91.352 L205.223,105.559 C205.223,105.747 205.201,105.934 205.166,106.111 C203.28,102.457 199.331,99.687 196.173,99.507 L196.173,79.406 C196.173,75.74 193.19,72.757 189.523,72.757 L133.837,72.757 L133.837,66.498 L139.725,66.498 C142.739,66.498 145.19,64.046 145.19,61.033 L145.19,58.35 C145.19,54.855 142.347,52.011 138.851,52.011 L133.837,52.011 L133.837,39.606 C134.788,38.891 135.405,37.757 135.405,36.476 C135.405,34.312 133.651,32.558 131.487,32.558 C129.323,32.558 127.569,34.312 127.569,36.476 C127.569,37.757 128.186,38.89 129.136,39.605 L129.136,52.011 L123.646,52.011 C122.482,52.011 121.535,51.064 121.535,49.9 L121.535,48.45 C122.508,47.737 123.142,46.59 123.142,45.292 C123.142,43.128 121.388,41.374 119.224,41.374 C117.06,41.374 115.306,43.128 115.306,45.292 C115.306,46.555 115.906,47.675 116.834,48.391 L116.834,49.9 C116.834,53.656 119.89,56.713 123.646,56.713 L129.136,56.713 L129.136,61.796 L126.959,61.796 C123.223,61.796 120.184,64.835 120.184,68.571 L120.184,72.757 L65.889,72.757 C62.223,72.757 59.24,75.74 59.24,79.406 L59.24,99.574 C56.202,100.052 52.635,102.695 50.872,106.111 C50.838,105.934 50.815,105.747 50.815,105.559 L50.815,91.352 C51.741,90.659 52.343,89.557 52.343,88.311 C52.343,86.212 50.642,84.511 48.543,84.511 C46.444,84.511 44.742,86.212 44.742,88.311 C44.742,89.486 45.276,90.536 46.114,91.233 L46.114,105.559 C46.114,107.195 46.719,109.56 48.425,110.839 L49.844,111.904 C49.999,112.903 50.32,113.888 50.805,114.849 C52.4,118.007 54.611,120.157 59.24,121.915 L59.24,170.13 C59.24,173.796 62.223,176.779 65.889,176.779 L111.545,176.779 L111.545,191.589 L56.957,191.589 C53.031,191.589 49.836,194.783 49.836,198.709 L49.836,200.874 L45.918,200.874 C42.57,200.874 39.846,203.598 39.846,206.946 L39.846,214.193 C28.985,203.091 20.419,190.249 14.389,175.992 C7.961,160.794 4.702,144.647 4.702,128 C4.702,111.353 7.961,95.206 14.389,80.008 C20.599,65.326 29.49,52.14 40.815,40.815 C52.14,29.49 65.326,20.599 80.008,14.389 C95.206,7.961 111.353,4.702 128,4.702 C144.647,4.702 160.794,7.961 175.992,14.389 C190.674,20.599 203.86,29.49 215.185,40.815 C226.51,52.14 235.401,65.326 241.611,80.008 C248.039,95.206 251.298,111.353 251.298,128 C251.298,144.647 248.039,160.794 241.611,175.992 C235.646,190.095 227.201,202.813 216.507,213.832 L216.507,213.832 Z M193.803,110.088 C193.925,107.035 194.996,104.856 195.52,104.285 C195.649,104.258 195.775,104.22 195.899,104.172 C195.913,104.171 195.927,104.17 195.942,104.17 C196.007,104.17 196.085,104.183 196.173,104.205 C197.522,104.551 201.419,107.469 201.383,110.565 C201.344,113.974 199.691,114.942 196.65,116.67 C196.5,116.755 196.336,116.794 196.173,116.798 C195.827,116.808 195.485,116.648 195.292,116.338 C193.905,114.107 193.743,111.592 193.803,110.088 L193.803,110.088 Z M133.837,61.796 L133.837,56.713 L138.851,56.713 C139.754,56.713 140.488,57.447 140.488,58.35 L140.488,61.033 C140.488,61.454 140.146,61.796 139.725,61.796 L133.837,61.796 L133.837,61.796 Z M60.746,116.338 C60.462,116.794 59.856,116.935 59.388,116.67 C59.337,116.641 59.29,116.613 59.24,116.585 C56.296,114.911 54.693,113.916 54.655,110.565 C54.624,107.862 57.588,105.298 59.24,104.459 C59.604,104.274 59.906,104.17 60.096,104.17 C60.111,104.17 60.125,104.171 60.139,104.172 C60.263,104.22 60.39,104.258 60.518,104.285 C61.042,104.856 62.114,107.035 62.235,110.088 C62.295,111.592 62.133,114.107 60.746,116.338 L60.746,116.338 Z" fill="#273335"></path>
		<g transform="translate(73.000000, 94.000000)">
			<path d="M99.114,32.825 L10.651,32.825 C4.829,32.825 0.109,28.105 0.109,22.283 L0.109,10.573 C0.109,4.751 4.829,0.031 10.651,0.031 L99.114,0.031 C104.936,0.031 109.656,4.751 109.656,10.573 L109.656,22.283 C109.656,28.105 104.936,32.825 99.114,32.825" fill="#273335"></path>
			<path d="M75.099,61.504 L37.77,61.504 C34.697,61.504 32.197,59.005 32.197,55.932 L32.197,52.219 C32.197,50.92 33.25,49.868 34.548,49.868 C35.846,49.868 36.899,50.92 36.899,52.219 L36.899,55.932 C36.899,56.412 37.29,56.803 37.77,56.803 L75.099,56.803 C76.398,56.803 77.45,57.855 77.45,59.153 C77.45,60.452 76.398,61.504 75.099,61.504" fill="#273335"></path>
			<path d="M104.008,10.834 C104.008,12.434 102.711,13.731 101.111,13.731 C99.51,13.731 98.213,12.434 98.213,10.834 C98.213,9.234 99.51,7.937 101.111,7.937 C102.711,7.937 104.008,9.234 104.008,10.834 Z M80.83,10.834 C80.83,12.434 79.533,13.731 77.932,13.731 C76.332,13.731 75.035,12.434 75.035,10.834 C75.035,9.234 76.332,7.937 77.932,7.937 C79.533,7.937 80.83,9.234 80.83,10.834 Z M69.24,10.834 C69.24,12.434 67.943,13.731 66.343,13.731 C64.743,13.731 63.446,12.434 63.446,10.834 C63.446,9.234 64.743,7.937 66.343,7.937 C67.943,7.937 69.24,9.234 69.24,10.834 Z M46.238,10.834 C46.238,12.434 44.941,13.731 43.341,13.731 C41.741,13.731 40.443,12.434 40.443,10.834 C40.443,9.234 41.741,7.937 43.341,7.937 C44.941,7.937 46.238,9.234 46.238,10.834 Z M34.649,10.834 C34.649,12.434 33.352,13.731 31.752,13.731 C30.151,13.731 28.854,12.434 28.854,10.834 C28.854,9.234 30.151,7.937 31.752,7.937 C33.352,7.937 34.649,9.234 34.649,10.834 Z M11.471,10.834 C11.471,12.434 10.174,13.731 8.574,13.731 C6.973,13.731 5.676,12.434 5.676,10.834 C5.676,9.234 6.973,7.937 8.574,7.937 C10.174,7.937 11.471,9.234 11.471,10.834 Z M34.649,22.423 C34.649,24.023 33.352,25.32 31.752,25.32 C30.151,25.32 28.854,24.023 28.854,22.423 C28.854,20.823 30.151,19.526 31.752,19.526 C33.352,19.526 34.649,20.823 34.649,22.423 Z M69.328,22.423 C69.328,24.023 68.031,25.32 66.431,25.32 C64.831,25.32 63.534,24.023 63.534,22.423 C63.534,20.823 64.831,19.526 66.431,19.526 C68.031,19.526 69.328,20.823 69.328,22.423 Z M103.92,22.423 C103.92,24.023 102.623,25.32 101.023,25.32 C99.423,25.32 98.125,24.023 98.125,22.423 C98.125,20.823 99.423,19.526 101.023,19.526 C102.623,19.526 103.92,20.823 103.92,22.423 Z M23.06,22.423 C23.06,24.023 21.763,25.32 20.163,25.32 C18.562,25.32 17.265,24.023 17.265,22.423 C17.265,20.823 18.562,19.526 20.163,19.526 C21.763,19.526 23.06,20.823 23.06,22.423 Z" fill="#FFFFFF"></path>
		</g>
		<path d="M178.938,217.068 C175.82,217.068 173.172,219.091 172.22,221.892 L168.302,221.892 L168.302,216.981 L163.6,216.981 L163.6,221.892 L157.607,221.892 L157.607,216.981 L152.906,216.981 L152.906,221.892 L148.929,221.892 C147.978,219.091 145.329,217.068 142.211,217.068 C138.297,217.068 135.113,220.252 135.113,224.167 C135.113,228.081 138.297,231.265 142.211,231.265 C145.272,231.265 147.879,229.314 148.873,226.593 L152.906,226.593 L152.906,231.086 L157.607,231.086 L157.607,226.593 L163.6,226.593 L163.6,231.086 L168.302,231.086 L168.302,226.593 L172.276,226.593 C173.271,229.314 175.877,231.265 178.938,231.265 C182.852,231.265 186.036,228.081 186.036,224.167 C186.036,220.252 182.852,217.068 178.938,217.068 L178.938,217.068 Z M142.211,226.563 C140.89,226.563 139.814,225.488 139.814,224.167 C139.814,222.845 140.89,221.77 142.211,221.77 C143.533,221.77 144.608,222.845 144.608,224.167 C144.608,225.488 143.533,226.563 142.211,226.563 L142.211,226.563 Z M178.938,226.563 C177.617,226.563 176.541,225.488 176.541,224.167 C176.541,222.845 177.617,221.77 178.938,221.77 C180.26,221.77 181.335,222.845 181.335,224.167 C181.335,225.488 180.26,226.563 178.938,226.563 L178.938,226.563 Z" fill="#273335"></path>
	</g>
</svg>
